!!!!SEGMENT: pl-wtm--r-1421--003_stefani-jozef--suita-andante-mosso.krn
!!!cenid: 18xx:2430
!!!COM: Stefani, Józef
!!!COM-rismID:
!!!CDT: 1800/04/16-1876/03/19
!!!CNT: Polish
!!!OPR: Suita
!!!OTL: Andante mosso
!!!OMV: 003
!!!PDT:
!!!AGN: Secular; Suite
!!!SMS-siglum: PL-Wtm
!!!SMS-shelfmark: R 1421
!!!SMS-shelfwork: 001-003 M
!!!SMS-variant:
!!!SMS-altvar:
!!!NIFC-rismSourceID: 1001116120
!!!NIFC-islandoraID: pl-wtm:25523
!!!URL-pdf-islandora: https://repozytorium.nifc.pl/islandora/object/pl-wtm%3A25523/datastream/PDF/view
!!!URL-scan: https://polish.musicsources.pl/pl/lokalizacje/galeria/rekopisy/6243 @EN{Scan on Polish Music Herritage in Open Access Website} @PL{Skany w portalu Dziedzictwo Muzyki Polskiej w otwartym dostępie}
!!!ONB-nifc: UWAGA: części Suity: 1. Maestoso, 2. Allegretto, 3. Andante mosso
!!!OMD: Andante mosso.
!!!AIN: 1 cello 1 forte 2 violn
!!!key:
**kern	**kern	**dynam	**kern	**dynam	**kern	**dynam	**kern	**dynam
*	*	*	*group1	*	*group1	*	*group1	*
*part4	*part4	*part4	*part3	*part3	*part2	*part2	*part1	*part1
*staff5	*staff4	*	*staff3	*	*staff2	*	*staff1	*
*Iforte	*Iforte	*	*Icello	*	*Ivioln	*	*Ivioln	*
*I"Fortepian	*I"Fortepian	*	*I"[Wiolonczela]	*	*I"[Skrzypce II]	*	*I"[Skrzypce I]	*
*>[A,B,B1,B,B2,C,D,D,E]	*>[A,B,B1,B,B2,C,D,D,E]	*>[A,B,B1,B,B2,C,D,D,E]	*>[A,B,B1,B,B2,C,D,D,E]	*>[A,B,B1,B,B2,C,D,D,E]	*>[A,B,B1,B,B2,C,D,D,E]	*>[A,B,B1,B,B2,C,D,D,E]	*>[A,B,B1,B,B2,C,D,D,E]	*>[A,B,B1,B,B2,C,D,D,E]
*>A	*>A	*>A	*>A	*>A	*>A	*>A	*>A	*>A
*clefF4	*clefG2	*	*clefF4	*	*clefG2	*	*clefG2	*
*k[f#c#]	*k[f#c#]	*	*k[f#c#]	*	*k[f#c#]	*	*k[f#c#]	*
*G:	*G:	*	*G:	*	*G:	*	*G:	*
*M3/4	*M3/4	*	*M3/4	*	*M3/4	*	*M3/4	*
=1	=1	=1	=1	=1	=1	=1	=1	=1
*^	*	*	*	*	*	*	*	*
*	*2\right	*	*	*	*	*	*	*	*
!	!	!	!LO:DY:rj	!	!	!	!	!	!
4r	2.D\	2.r	p	4D\	.	4r	.	4r	.
!	!	!	!	!	!	!	!	!LO:TX:b:t=pizz	!
4A 4F#/	.	.	.	4r	.	4d/	.	4f#/	.
4A 4F#/	.	.	.	4F#\	.	4A/	.	4d/	.
=2	=2	=2	=2	=2	=2	=2	=2	=2	=2
*	*	*	*	*rep	*	*rep	*	*rep	*
4r	2.D\	2.r	.	4D\	.	4r	.	4r	.
4A 4F#/	.	.	.	4r	.	4d/	.	4f#/	.
4A 4F#/	.	.	.	4F#\	.	4A/	.	4d/	.
*	*	*	*	*Xrep	*	*Xrep	*	*Xrep	*
=3	=3	=3	=3	=3	=3	=3	=3	=3	=3
*	*	*	*	*rep	*	*rep	*	*rep	*
4r	2.D\	(8ff#\L	.	4D\	.	4r	.	4r	.
.	.	8a\J)	.	.	.	.	.	.	.
*	*	*2\right	*	*	*	*	*	*	*
4A 4F#/	.	2dd^\	.	4r	.	4d/	.	4f#/	.
4A 4F#/	.	.	.	4F#\	.	4A/	.	4d/	.
*	*	*	*	*Xrep	*	*Xrep	*	*Xrep	*
=4	=4	=4	=4	=4	=4	=4	=4	=4	=4
*rep	*rep	*	*	*rep	*	*rep	*	*rep	*
4r	2.D\	(8ff#\L	.	4D\	.	4r	.	4r	.
.	.	8a\J)	.	.	.	.	.	.	.
4A 4F#/	.	2dd^\	.	4r	.	4d/	.	4f#/	.
4A 4F#/	.	.	.	4F#\	.	4A/	.	4d/	.
*Xrep	*Xrep	*	*	*Xrep	*	*Xrep	*	*Xrep	*
*v	*v	*	*	*	*	*	*	*	*
=5	=5	=5	=5	=5	=5	=5	=5	=5
4AA/	(8dd\L	.	4AA/	.	4r	.	4r	.
.	8cc#\J)	<	.	.	.	.	.	.
4A 4G 4E\	(8cc#\L	.	4r	.	4e/	.	4g/	.
.	8ee\J)	.	.	.	.	.	.	.
4A 4G 4E\	(8ee\L	.	4A\	.	4c#/	.	4e/	.
.	8gg\J)	[[	.	.	.	.	.	.
=6	=6	=6	=6	=6	=6	=6	=6	=6
*rep	*	*	*rep	*	*rep	*	*rep	*
4AA/	(8gg\L	>	4AA/	.	4r	.	4r	.
.	8bb\J)	.	.	.	.	.	.	.
4A 4G 4E\	(8bb\L	.	4r	.	4e/	.	4g/	.
.	8aa\J)	]	.	.	.	.	.	.
4A 4G 4E\	(8gg#X\L	.	4A\	.	4c#/	.	4e/	.
.	8ggn\J)	.	.	.	.	.	.	.
*Xrep	*	*	*Xrep	*	*Xrep	*	*Xrep	*
!!LO:LB:g=original
=7	=7	=7	=7	=7	=7	=7	=7	=7
*^	*	*	*	*	*	*	*	*
4r	2.D\	(8ff#\L	.	4D\	.	4r	.	4r	.
.	.	8a\J)	.	.	.	.	.	.	.
4A 4F#/	.	2dd^\	.	4r	.	4d/	.	4f#/	.
4A 4F#/	.	.	.	4F#\	.	4A/	.	4d/	.
=8	=8	=8	=8	=8	=8	=8	=8	=8	=8
*rep	*rep	*	*	*rep	*	*rep	*	*rep	*
4r	2.D\	(8ff#\L	.	4D\	.	4r	.	4r	.
.	.	8a\J)	.	.	.	.	.	.	.
4A 4F#/	.	2dd^\	.	4r	.	4d/	.	4f#/	.
4A 4F#/	.	.	.	4F#\	.	4A/	.	4d/	.
*Xrep	*Xrep	*	*	*Xrep	*	*Xrep	*	*Xrep	*
=9	=9	=9	=9	=9	=9	=9	=9	=9	=9
*^	*^	*	*	*	*	*	*	*	*
4r	4ryy	2.AA\	2.AA/	(8dd\L	.	4AA/	.	4r	.	4r	.
.	.	.	.	8cc#\J)	.	.	.	.	.	.	.
4A/	4A 4G 4E\	.	.	(8cc#\L	.	4r	.	4e/	.	4g/	.
.	.	.	.	8bb\J)	.	.	.	.	.	.	.
4A/	4A 4G 4E\	.	.	(8bb\L	.	4A\	.	4c#/	.	4e/	.
.	.	.	.	8aa\J)	.	.	.	.	.	.	.
*	*	*v	*v	*	*	*	*	*	*	*	*
*	*v	*v	*	*	*	*	*	*	*	*
*v	*v	*	*	*	*	*	*	*	*
=10	=10	=10	=10	=10	=10	=10	=10	=10
2A 2F# 2D\	2dd\	.	4D\	.	4r	.	4r	.
.	.	.	4r	.	4A/	.	4d/	.
4r	4r	.	4D\	.	4d/	.	4f#/	.
=11	=11	=11	=11	=11	=11	=11	=11	=11
*clefG2	*8va	*	*	*	*	*	*	*
!	!	!	!	!	!LO:TX:b:t=arco	!	!	!
(8ff#\L	(8fff#\L	.	4D\	mf	4r	.	8r	.
8a\J)	8aa\J)	.	.	.	.	.	8d/L	.
2ff#\	2ddd^<\	.	4r	.	4f# 4A/	.	8f#/	.
.	.	.	.	.	.	.	8a/	.
.	.	.	4r	.	4f# 4A/	.	8dd/	.
.	.	.	.	.	.	.	8ff#/J	.
=12	=12	=12	=12	=12	=12	=12	=12	=12
*	*	*	*	*	*rep	*	*rep	*
(8ff#\L	(8fff#\L	.	4D\	.	4r	.	8r	.
8a\J)	8aa\J)	.	.	.	.	.	8d/L	.
2dd\	2ddd^<\	.	4r	.	4f# 4A/	.	8f#/	.
.	.	.	.	.	.	.	8a/	.
.	.	.	4r	.	4f# 4A/	.	8dd/	.
.	.	.	.	.	.	.	8ff#/J	.
*	*	*	*	*	*Xrep	*	*Xrep	*
!!LO:LB:g=original
=13	=13	=13	=13	=13	=13	=13	=13	=13
(8dd\L	(8ddd\L	.	4AA/	.	4r	.	8r	.
8cc#\J)	8ccc#\J)	.	.	.	.	.	8g#X/L	.
(8cc#\L	(8ccc#\L	<	4r	.	4g 4A/	.	8a/	.
8ee\J)	8eee\J)	.	.	.	.	.	8cc#/	.
(8ee\L	(8eee\L	.	4r	.	4g 4A/	.	8ee/	.
8gg\J)	8ggg\J)	.	.	.	.	.	8a/J	.
=14	=14	=14	=14	=14	=14	=14	=14	=14
*	*	*	*rep	*	*rep	*	*rep	*
8gg\L	(8ggg\L	[	4AA/	.	4r	.	8r	.
8bb\J	8bbb\J)	>	.	.	.	.	8g#X/L	.
8bb\L	(8bbb\L	.	4r	.	4g 4A/	.	8a/	.
8aa\J	8aaa\J)	.	.	.	.	.	8cc#/	.
8gg#X\L	(8ggg#X\L	.	4r	.	4g 4A/	.	8ee/	.
8ggn\J	8gggn\J)	]	.	.	.	.	8a/J	.
*	*	*	*Xrep	*	*Xrep	*	*Xrep	*
=15	=15	=15	=15	=15	=15	=15	=15	=15
(8ff#\L	(8fff#\L	.	4D/	.	4r	.	8r	.
8a\J)	8aa\J)	.	.	.	.	.	8d/L	.
2dd^<\	2ddd^\	.	4r	.	4f# 4A/	.	8f#/	.
.	.	.	.	.	.	.	8a/	.
.	.	.	4r	.	4f# 4A/	.	8dd/	.
.	.	.	.	.	.	.	8ff#/J	.
=16	=16	=16	=16	=16	=16	=16	=16	=16
*	*	*	*rep	*	*rep	*	*rep	*
(8ff#\L	(8fff#\L	.	4D/	.	4r	.	8r	.
8a\J)	8aa\J)	.	.	.	.	.	8d/L	.
2dd^<\	2ddd^\	.	4r	.	4f# 4A/	.	8f#/	.
.	.	.	.	.	.	.	8a/	.
.	.	.	4r	.	4f# 4A/	.	8dd/	.
.	.	.	.	.	.	.	8ff#/J	.
*	*	*	*Xrep	*	*Xrep	*	*Xrep	*
=17	=17	=17	=17	=17	=17	=17	=17	=17
(8dd\L	(8ddd\L	.	4AA/	.	4r	.	8r	.
8cc#\J)	8ccc#\J)	.	.	.	.	.	8g#X/L	.
(8cc#\L	(8ccc#\L	.	4r	.	4g 4A/	.	8a/	.
8bb\J)	8bbb\J)	.	.	.	.	.	8cc#/	.
(8bb\L	(8bbb\L	.	4r	.	4g 4A/	.	8ee/	.
8aa\J)	8aaa\J)	.	.	.	.	.	8a/J	.
!!LO:PB:g=original
=18	=18	=18	=18	=18	=18	=18	=18	=18
2dd\	2ddd\	.	4D\	.	4r	.	(8ff#\L	.
.	.	.	.	.	.	.	8dd\)	.
.	.	.	4r	.	4f# 4A/	.	8a\	.
.	.	.	.	.	.	.	8f#\J	.
*	*X8va	*	*	*	*	*	*	*
4r	4r	.	4r	.	4f# 4A/	.	4d/	.
*clefF4	*	*	*	*	*	*	*	*
=19!|:	=19!|:	=19!|:	=19!|:	=19!|:	=19!|:	=19!|:	=19!|:	=19!|:
*>B	*>B	*>B	*>B	*>B	*>B	*>B	*>B	*>B
*^	*	*	*	*	*	*	*	*
!	!	!LO:TX:a:t=loco	!	!	!	!	!	!	!
4r	2.E\	(8ff#\L	.	4E\	.	4r	p	4r	.
.	.	8ee\J)	.	.	.	.	.	.	.
4d 4G#X/	.	(8ee\L	.	4r	.	(>4g#X 4B'>/	.	4r	.
.	.	8b\J)	.	.	.	.	.	.	.
.	.	.	.	.	.	.	.	(16qqff#/LL	.
.	.	.	.	.	.	.	.	16qqee/	.
.	.	.	.	.	.	.	.	16qqdd#X/JJ	.
4d 4G#/	.	4ee^\	.	4r	.	4g# 4B'>/)	.	4ee^<\)	.
=20	=20	=20	=20	=20	=20	=20	=20	=20	=20
*	*	*	*	*	*	*	*	*rep	*
4r	2.E\	(8ff#\L	.	4E\	.	4r	.	4r	.
.	.	8ee\J)	.	.	.	.	.	.	.
4c# 4A/	.	(8ee\L	.	4r	.	(>4a 4c#'>/	.	4r	.
.	.	8cc#\J)	.	.	.	.	.	.	.
.	.	.	.	.	.	.	.	(16qqff#/LL	.
.	.	.	.	.	.	.	.	16qqee/	.
.	.	.	.	.	.	.	.	16qqdd#X/JJ	.
4c# 4A/	.	4ee^\	.	4r	.	4a 4c#'>/)	.	4ee^<\)	.
*	*	*	*	*	*	*	*	*Xrep	*
=21	=21	=21	=21	=21	=21	=21	=21	=21	=21
4r	2.E\	8ee'\L	.	4E\	.	4r	.	8e'/L	.
.	.	8gg#X'\J	.	.	.	.	.	8g#X'/J	.
4d 4B/	.	8ee'\L	.	4r	.	(4g#X 4B'/	.	8e'/L	.
.	.	8bb'\J	.	.	.	.	.	8b'/J	.
4d 4B/	.	8ee'\L	.	4r	.	4g# 4B'/)	.	8e'/L	.
.	.	8eee'\J	.	.	.	.	.	8ee'/J	.
=22	=22	=22	=22	=22	=22	=22	=22	=22	=22
4r	2.E\	8aa\L	.	4E\	.	4r	.	8a/L	.
.	.	8ee\J	.	.	.	.	.	8e/	.
4c# 4A/	.	8ccc#\L	.	4r	.	(>4a 4c#'>/	.	8cc#/	.
.	.	8ee\J	.	.	.	.	.	8e/	.
4c# 4A/	.	8aa\L	.	4r	.	4a 4c#'>/)	.	8a/	.
.	.	8ee\J	.	.	.	.	.	8e/J	.
!!LO:LB:g=original
=23	=23	=23	=23	=23	=23	=23	=23	=23	=23
4r	2.E\	(8ff#\L	.	4E\	.	4r	.	4r	.
.	.	8ee\J)	.	.	.	.	.	.	.
4d 4G#X/	.	(8ee\L	.	4r	.	4g#X 4B/	.	4r	.
.	.	8b\J)	.	.	.	.	.	.	.
.	.	.	.	.	.	.	.	(16qqff#/LL	.
.	.	.	.	.	.	.	.	16qqee/	.
.	.	.	.	.	.	.	.	16qqdd#X/JJ	.
4d 4G#/	.	4ee'^<\	.	4r	.	4g# 4B/	.	4ee\)	.
=24	=24	=24	=24	=24	=24	=24	=24	=24	=24
*	*	*	*	*rep	*	*rep	*	*rep	*
4r	2.E\	(8ff#\L	.	4E\	.	4r	.	4r	.
.	.	8ee\J)	.	.	.	.	.	.	.
!	!	!	!	!	!	!LO:SIC:v:n=2:s=4c#	!	!	!
!	!	!	!	!	!	!LO:SIC:v:n=1:s=4a	!	!	!
4c# 4A/	.	(8ee\L	.	4r	.	4g#X 4B/	.	4r	.
.	.	8cc#\J)	.	.	.	.	.	.	.
.	.	.	.	.	.	.	.	(16qqff#/LL	.
.	.	.	.	.	.	.	.	16qqee/	.
!	!	!	!	!	!	!LO:SIC:v:n=2:s=4c#	!	!	!
!	!	!	!	!	!	!LO:SIC:v:n=1:s=4a	!	!	!
.	.	.	.	.	.	.	.	16qqdd#X/JJ	.
4c# 4A/	.	4ee^<\	.	4r	.	4g# 4B/	.	4ee\)	.
*	*	*	*	*Xrep	*	*Xrep	*	*Xrep	*
*v	*v	*	*	*	*	*	*	*	*
=25	=25	=25	=25	=25	=25	=25	=25	=25
!	!	!	!	!	!	!	!	!LO:DY:rj
8A 8F# 8D\	(8ff#^<\L	.	8D\	.	8f# 8A/	.	(8f#^/L	f
8r	16bb\Jk)	.	8r	.	8r	.	16b/Jk)	.
.	16r	.	.	.	.	.	16r	.
8A 8F# 8D\	(8ff#^<\L	.	8D\	.	8f# 8A/	.	(8f#^/L	.
8r	16bb\Jk)	.	8r	.	8r	.	16b/Jk)	.
.	16r	.	.	.	.	.	16r	.
4d 4B 4D\	(8dd^<\L	.	8E\	.	8e 8d/	.	(8d^/L	.
.	16gg#X\Jk)	.	8r	.	8r	.	16g#X/Jk)	.
.	16r	.	.	.	.	.	16r	.
=26	=26	=26	=26	=26	=26	=26	=26	=26
8c# 8A\	8aa\	.	4.AA/	.	(2c#/	.	(8a/L	>
8r	8r	.	.	.	.	.	8e/	.
4r	4r	.	.	.	.	.	8b/	.
.	.	.	(8A\	.	.	.	8a/	.
8r	8r	.	8B\L	.	8d/L	.	8g#X/	]
*clefG2	*	*	*	*	*	*	*	*
8a/	8aa\	.	8c#\J)	.	8e/J)	.	8gn/J)	.
!!LO:LB:g=original
=27	=27	=27	=27	=27	=27	=27	=27	=27
*	*8va	*	*	*	*	*	*	*
8ff#\L	(8fff#\L	.	4D\	.	4r	.	8r	.
8a\J	8aa\J)	.	.	.	.	.	8d/L	.
2dd\	2ddd^<\	.	4r	.	4f# 4A/	.	8f#/	.
.	.	.	.	.	.	.	8a/	.
.	.	.	4r	.	4f# 4A/	.	8dd/	.
.	.	.	.	.	.	.	8ff#/J	.
=28	=28	=28	=28	=28	=28	=28	=28	=28
*	*	*	*	*	*rep	*	*rep	*
8ff#\L	(8fff#\L	.	4D\	.	4r	.	8r	.
8a\J	8aa\J)	.	.	.	.	.	8d/L	.
2dd\	2ddd^<\	.	4r	.	4f# 4A/	.	8f#/	.
.	.	.	.	.	.	.	8a/	.
.	.	.	4r	.	4f# 4A/	.	8dd/	.
.	.	.	.	.	.	.	8ff#/J	.
*	*	*	*	*	*Xrep	*	*Xrep	*
=29	=29	=29	=29	=29	=29	=29	=29	=29
(8dd\L	(8ddd\L	.	4AA/	.	4r	.	8r	.
8cc#\J)	8ccc#\J)	.	.	.	.	.	8g#X/L	.
(8cc#\L	(8ccc#\L	.	4r	.	4g 4A/	.	8a/	.
8ee\J)	8eee\J)	.	.	.	.	.	8cc#/	.
(8ee\L	(8eee\L	.	4r	.	4g 4A/	.	8ee/	.
8gg\J)	8ggg\J)	.	.	.	.	.	8a/J	.
=30	=30	=30	=30	=30	=30	=30	=30	=30
*	*	*	*	*	*rep	*	*rep	*
8gg\L	(8ggg\L	.	4AA/	.	4r	.	8r	.
8bb\J	8bbb\J)	.	.	.	.	.	8g#X/L	.
8bb\L	(8bbb\L	.	4r	.	4g 4A/	.	8a/	.
8aa\J	8aaa\J)	.	.	.	.	.	8cc#/	.
8gg#X\L	(8ggg#X\L	.	4r	.	4g 4A/	.	8ee/	.
8ggn\J	8gggn\J)	.	.	.	.	.	8a/J	.
*	*	*	*	*	*Xrep	*	*Xrep	*
=31	=31	=31	=31	=31	=31	=31	=31	=31
(8ff#\L	(8fff#\L	.	4D\	.	4r	.	8r	.
8a\J)	8aa\J)	.	.	.	.	.	8d/L	.
2dd\	2ddd^<\	.	4r	.	4f# 4A/	.	8f#/	.
.	.	.	.	.	.	.	8a/	.
.	.	.	4r	.	4f# 4A/	.	8dd/	.
.	.	.	.	.	.	.	8ff#/J	.
=32	=32	=32	=32	=32	=32	=32	=32	=32
*	*	*	*rep	*	*rep	*	*rep	*
(8ff#\L	(8fff#\L	.	4D\	.	4r	.	8r	.
8a\J)	8aa\J)	.	.	.	.	.	8d/L	.
2dd\	2ddd^<\	.	4r	.	4f# 4A/	.	8f#/	.
.	.	.	.	.	.	.	8a/	.
.	.	.	4r	.	4f# 4A/	.	8dd/	.
.	.	.	.	.	.	.	8ff#/J	.
*	*X8va	*	*Xrep	*	*Xrep	*	*Xrep	*
!!LO:PB:g=original
=33	=33	=33	=33	=33	=33	=33	=33	=33
*clefG2	*8va	*	*	*	*	*	*	*
(8dd\L	(8ddd\L	.	4AA/	.	4r	.	8r	.
8cc#\J)	8ccc#\J)	.	.	.	.	.	(8g#X/L	.
(8cc#\L	(8ccc#\L	.	4r	.	4g 4A/	.	8a/)	.
8bb\J)	8bbb\J)	.	.	.	.	.	8cc#/	.
(8bb\L	(8bbb\L	.	4r	.	4g 4A/	.	8ee/	.
!	!	!	!	!	!	!	!LO:TX:a:t=P:problem=wykreślony takt	!
8aa\J)	8aaa\J)	.	.	.	.	.	8a/J	.
=34	=34	=34	=34	=34	=34	=34	=34	=34
!!LO:TX:a:t=Ima
*>B1	*>B1	*>B1	*>B1	*>B1	*>B1	*>B1	*>B1	*>B1
2dd\	2ddd\	.	4D\	.	4r	.	(8ff#\L	.
.	.	.	.	.	.	.	8dd\)	.
.	.	.	4r	.	4f# 4A/	.	8a'\	.
.	.	.	.	.	.	.	8f#'\J	.
4r	4r	.	8DD/	.	8f# 8A/	.	8d/	.
.	.	.	8r	.	8r	.	8r	.
=35:|!	=35:|!	=35:|!	=35:|!	=35:|!	=35:|!	=35:|!	=35:|!	=35:|!
!!LO:TX:a:t=2
*>B2	*>B2	*>B2	*>B2	*>B2	*>B2	*>B2	*>B2	*>B2
2dd\	2ddd\	.	4D\	.	4r	.	8ff#;\L	.
.	.	.	.	.	.	.	8dd\	.
.	.	.	4r	.	4f# 4A/	.	8a\	.
.	.	.	.	.	.	.	8f#\J	.
*	*X8va	*	*	*	*	*	*	*
4r;	4r;	.	8DD/	.	8f# 8A/	.	8d/	.
.	.	.	8r;	.	8r;	.	8r;	.
!!LO:LB:g=original
==36	==36	==36	==36	==36	==36	==36	==36	==36
*>C	*>C	*>C	*>C	*>C	*>C	*>C	*>C	*>C
*clefF4	*	*	*	*	*	*	*	*
*k[cnf#]	*k[cnf#]	*	*k[cnf#]	*	*k[cnf#]	*	*k[cnf#]	*
*M2/4	*M2/4	*	*M2/4	*	*M2/4	*	*M2/4	*
!	!	!	!	!	!	!	!LO:TX:a:t=P:problem=początek repetycji dopisany ołówkiem	!LO:DY:rj
8r	(16dd\LL	p	8r	.	16d/LL	.	(16dd\LL	p
.	16gg\JJ)	.	.	.	16g/JJ	.	16gg\JJ	.
=37	=37	=37	=37	=37	=37	=37	=37	=37
!	!	!	!LO:TX:b:t=pizz	!	!	!	!	!
8G\L	8bb\L	.	8GG/	.	8b/	.	8bb\)	.
8dJ 8B\	(16dd\L	.	8r	.	8r	.	8r	.
.	16gg\JJ)	.	.	.	.	.	.	.
*rep	*	*	*	*	*	*	*	*
8G\L	8bb\L	.	8G\	.	4r	.	4r	.
8dJ 8B\	(16ccc\L	.	8r	.	.	.	.	.
.	16bb\JJ)	.	.	.	.	.	.	.
*Xrep	*	*	*	*	*	*	*	*
=38	=38	=38	=38	=38	=38	=38	=38	=38
.	8qbb/	.	.	.	.	.	.	.
8F#\L	(16aa\LL	.	8F#\	.	4r	.	4r	.
.	16gg#X\	.	.	.	.	.	.	.
8dJ 8c 8A\	16aa\	.	8r	.	.	.	.	.
.	16bb\JJ	.	.	.	.	.	.	.
*rep	*	*	*	*	*	*	*	*
8F#\L	8aa\)	.	8F#\	.	8r	.	8r	.
8dJ 8c 8A\	(16dd\LL	.	8r	.	(16d/LL	.	(16dd\LL	.
.	16ff#\JJ	.	.	.	16f#/JJ	.	16ff#\JJ	.
*Xrep	*	*	*	*	*	*	*	*
=39	=39	=39	=39	=39	=39	=39	=39	=39
8D\L	8aa\L)	.	8D\	.	8a/)	.	8aa\)	.
8dJ 8c 8A\	(16dd\L	.	8r	.	8r	.	8r	.
.	16ff#\JJ	.	.	.	.	.	.	.
*rep	*	*	*	*	*	*	*	*
8D\L	8aa\L)	.	8D\	.	4r	.	4r	.
8dJ 8c 8A\	(16bb\L	.	8r	.	.	.	.	.
.	16aa\JJ)	.	.	.	.	.	.	.
*Xrep	*	*	*	*	*	*	*	*
=40	=40	=40	=40	=40	=40	=40	=40	=40
.	8qaa/	.	.	.	.	.	.	.
8G\L	(16gg\LL	.	8GG/	.	4r	.	4r	.
.	16ff#\	.	.	.	.	.	.	.
8dJ 8B\	16gg\	.	8r	.	.	.	.	.
.	16aa\JJ	.	.	.	.	.	.	.
*rep	*	*	*	*	*	*	*	*
8G\L	8gg\)	.	8G\	.	8r	.	8r	.
8dJ 8B\	(16dd\LL	.	8r	.	(16d/LL	.	(16dd\LL	.
.	16gg\JJ	.	.	.	16g/JJ	.	16gg\JJ	.
*Xrep	*	*	*	*	*	*	*	*
!!LO:LB:g=original
=41	=41	=41	=41	=41	=41	=41	=41	=41
!	!LO:TX:t=P:problem=brak dokończenia łuku	!	!	!	!LO:TX:t=P:problem=brak dokończenia łuku	!	!LO:TX:t=P:problem=brak dokończenia łuku	!
8G\L	8bb\)	.	8GG/	.	8b/)	.	8bb\)	.
8dJ 8B\	(16dd\LL	.	8r	.	8r	.	8r	.
.	16gg\JJ	.	.	.	.	.	.	.
*rep	*	*	*	*	*	*	*	*
8G\L	16bb\LL)	.	8G\	.	4r	.	4r	.
.	(16ddd 16bb\	.	.	.	.	.	.	.
8dJ 8B\	16ccc 16aa\	.	8r	.	.	.	.	.
.	16bbJJ 16gg\)	.	.	.	.	.	.	.
*Xrep	*	*	*	*	*	*	*	*
=42	=42	=42	=42	=42	=42	=42	=42	=42
.	8qbb/	.	.	.	.	.	.	.
8F#\L	(16aa\LL	.	8F#\	.	4r	.	4r	.
.	16gg#X\	.	.	.	.	.	.	.
8dJ 8c 8A\	16aa\	.	8r	.	.	.	.	.
.	16bb\JJ	.	.	.	.	.	.	.
*rep	*	*	*	*	*	*	*	*
8F#\L	8aa\)	.	8F#\	.	8r	.	8r	.
8dJ 8c 8A\	(8eee^<\	.	8r	.	8d 8c/	.	(>8ee^<\	.
*Xrep	*	*	*	*	*	*	*	*
=43	=43	=43	=43	=43	=43	=43	=43	=43
8D\L	16ff#\)	.	8D\	.	8r	.	16f#/)	.
.	16r	.	.	.	.	.	16r	.
!	!	!	!	!	!	!	!LO:TX:t=P:problem=mixed beam	!
8cJ 8F#\	(8eee^<\L	.	8r	.	8f# 8c/	.	(8ee^<\L	.
*rep	*	*	*	*	*	*	*	*
8D\L	16ff#\Jk)	.	8D\	.	8r	.	16f#/Jk)	.
.	16r	.	.	.	.	.	16r	.
.	(8qddd/	.	.	.	.	.	(8qdd/	.
8cJ 8F#\	16.ccc\LL)	.	8r	.	8f# 8c/	.	16.cc\LL)	.
.	32aa\JJk|	.	.	.	.	.	32a\JJk|	.
*Xrep	*	*	*	*	*	*	*	*
=44	=44	=44	=44	=44	=44	=44	=44	=44
.	8qaa/	.	.	.	.	.	(8qa/	.
8BL 8G\	(16gg\LL	.	8GG/	.	8r	.	16g/LL	.
.	16ff#\	.	.	.	.	.	16f#/	.
8D\J	16gg\	.	8r	.	8gL 8B/	.	16g/	.
.	16aa\JJ	.	.	.	.	.	16a/JJ	.
!	!	!	!	!	!	!	!LO:TX:a:t=P:problem=koniec repetycji dopisany ołówkiem	!
8B 8G\	8gg\)	.	8G\	.	8gJ 8B/	.	8g/)	.
=||	=||	=||	=||	=||	=||	=||	=||	=||
!	!	!LO:DY:rj	!	!	!	!	!LO:TX:t=P:problem=fragment skreślony ołówkiem	!LO:DY:a
8r	(16dd\LL	f	8r	.	8r	.	(16d/LL	f
.	16gg\JJ)	.	.	.	.	.	16g/JJ)	.
!!LO:PB:g=original
=45!|:	=45!|:	=45!|:	=45!|:	=45!|:	=45!|:	=45!|:	=45!|:	=45!|:
*>D	*>D	*>D	*>D	*>D	*>D	*>D	*>D	*>D
!	!	!LO:DY:rj	!	!	!	!	!	!
8r	(16dd\LL	mf	8r	.	8r	.	8r	.
.	16ff#\JJ	.	.	.	.	.	.	.
*clefG2	*	*	*	*	*	*	*	*
=46	=46	=46	=46	=46	=46	=46	=46	=46
*^	*	*	*	*	*	*	*	*
8d/L	4d\	8aa\L)	.	8D\	.	8r	.	4r	.
8aJ 8f#/	.	(16ff#\L	.	8r	.	8a 8f#/	.	.	.
.	.	16dd\JJ)	.	.	.	.	.	.	.
8d/L	4d\	8bb'^<\L	.	4D^<\	.	8r	.	8bb'^<\L	.
8bJ 8g#X 8fn/	.	8gg#X'^<\J	.	.	.	8b 8g#X^/	.	8gg#X'^<\J	.
=47	=47	=47	=47	=47	=47	=47	=47	=47	=47
*rep	*rep	*	*	*rep	*	*rep	*	*	*
8d/L	4d\	8aa'\L	.	8D\	.	8r	.	4r	.
8aJ 8f#/	.	(16ff#\L	.	8r	.	8a 8f#/	.	.	.
.	.	16dd\JJ)	.	.	.	.	.	.	.
8d/L	4d\	8bb'^<\L	.	4D^<\	.	8r	.	8bb'^<\L	.
8bJ 8g#X 8fn/	.	8gg#X'^<\J	.	.	.	8b 8g#X^/	.	8gg#X'^<\J	.
*Xrep	*Xrep	*	*	*Xrep	*	*Xrep	*	*	*
=48	=48	=48	=48	=48	=48	=48	=48	=48	=48
.	.	(32qqaa/LLL	f	.	.	.	.	(32qqaa/LLL	f
.	.	32qqbb/	.	.	.	.	.	32qqbb/	.
.	.	32qqccc#X/JJJ	.	.	.	.	.	32qqccc#X/JJJ	.
!	!	!	!	!	!LO:DY:rj	!	!	!	!
8d/L	4d\	8ddd\L)	.	8D\	f	8r	.	8ddd\L)	.
8aJ 8f#/	.	8ff#'\	.	8r	.	8a 8f#/	.	8ff#'\	.
*rep	*rep	*	*	*	*	*	*	*	*
8d/L	4d\	(8bb\	.	8D\	.	8r	.	(8bb\	.
8aJ 8f#/	.	8aa\J)	.	8r	.	8a 8f#/	.	8aa\J)	.
*Xrep	*Xrep	*	*	*	*	*	*	*	*
=49	=49	=49	=49	=49	=49	=49	=49	=49	=49
8c#X/L	4c#X\	(16bb\LL	.	8C#X/	.	8r	.	(16bb\LL	.
.	.	16aa\	.	.	.	.	.	16aa\	.
8aJ 8g 8e/	.	16gg\	.	8r	.	8a 8g/	.	16gg\	.
.	.	16ff#\JJ)	.	.	.	.	.	16ff#\JJ)	.
8c#/L	4c#\	(8dd#X^<\L	.	8C#/	.	8r	.	(8dd#X\L	.
8aJ 8g 8e/	.	8ee\J)	.	8r	.	8a 8g/	.	8ee\J)	.
!!LO:LB:g=original
=50	=50	=50	=50	=50	=50	=50	=50	=50	=50
8d/L	4d\	8aa'\L	.	8D\	.	8r	.	4r	.
8aJ 8f#/	.	(16ff#\L	.	8r	.	8a 8f#/	.	.	.
.	.	16dd\JJ)	.	.	.	.	.	.	.
8d/L	4d\	8bb'^<\L	.	4D^<\	.	8r	.	8bb^<\L	.
8bJ 8g#X 8fn/	.	8gg#X'^<\J	.	.	.	8b 8g#X^/	.	8gg#X^<\J	.
=51	=51	=51	=51	=51	=51	=51	=51	=51	=51
*rep	*rep	*	*	*rep	*	*rep	*	*	*
8d/L	4d\	8aa'\L	.	8D\	.	8r	.	4r	.
8aJ 8f#/	.	(16ff#\L	.	8r	.	8a 8f#/	.	.	.
.	.	16dd\JJ)	.	.	.	.	.	.	.
8d/L	4d\	8bb'^<\L	.	4D^<\	.	8r	.	8bb^<\L	.
8bJ 8g#X 8fn/	.	8gg#X'^<\J	.	.	.	8b 8g#X^/	.	8gg#X^<\J	.
*Xrep	*Xrep	*	*	*Xrep	*	*Xrep	*	*	*
=52	=52	=52	=52	=52	=52	=52	=52	=52	=52
.	.	(32qqaa/LLL	f	.	.	.	.	(32qqaa/LLL	f
.	.	32qqbb/	.	.	.	.	.	32qqbb/	.
.	.	32qqccc#X/JJJ	.	.	.	.	.	32qqccc#X/JJJ	.
!	!	!	!	!	!	!	!LO:DY:rj	!	!
8d/L	4d\	8ddd\L)	.	8D\	.	8r	f	8ddd\L)	.
8aJ 8f#/	.	8ff#'\	.	8r	.	8a 8f#/	.	8ff#'\	.
*rep	*rep	*	*	*	*	*	*	*	*
8d/L	4d\	(8bb\	.	8D\	.	8r	.	(8bb\	.
8aJ 8f#/	.	8aa\J)	.	8r	.	8a 8f#/	.	8aa\J)	.
*Xrep	*Xrep	*	*	*	*	*	*	*	*
=53	=53	=53	=53	=53	=53	=53	=53	=53	=53
8A/L	4A\	(16bb\LL	.	4AA/	.	8r	.	(16bb\LL	.
.	.	16aa\	.	.	.	.	.	16aa\	.
8gJ 8c#X/	.	16gg\	.	.	.	8cc#X 8g\	.	16gg\	.
.	.	16ee\JJ	.	.	.	.	.	16ee\JJ	.
8f# 8d/	4ryy	8dd\)	.	8D/	.	8dd 8f#\	.	8dd\)	.
!	!	!	!	!	!	!	!LO:DY:rj	!	!LO:DY:rj
8r	.	(16dd\LL	.	8r	.	(16d/LL	p	(16dd\LL	p
.	.	16gg\JJ	.	.	.	16g/JJ	.	16gg\JJ	.
*v	*v	*	*	*	*	*	*	*	*
*clefF4	*	*	*	*	*	*	*	*
=54	=54	=54	=54	=54	=54	=54	=54	=54
!	!	!	!	!LO:DY:rj	!	!	!	!
8G\L	8bb\)	.	8GG/	p	8b/)	.	8bb\)	.
8dJ 8B\	(16dd\LL	.	8r	.	8r	.	8r	.
.	16gg\JJ	.	.	.	.	.	.	.
*rep	*	*	*	*	*	*	*	*
8G\L	8bb\L)	.	8G\	.	4r	.	4r	.
8dJ 8B\	(16ccc\L	.	8r	.	.	.	.	.
.	16bb\JJ)	.	.	.	.	.	.	.
*Xrep	*	*	*	*	*	*	*	*
=55	=55	=55	=55	=55	=55	=55	=55	=55
.	8qbb/	.	.	.	.	.	.	.
8F#\L	(16aa\LL	.	8F#\	.	4r	.	4r	.
.	16gg#X\	.	.	.	.	.	.	.
8dJ 8c 8A\	16aa\	.	8r	.	.	.	.	.
.	16bb\JJ	.	.	.	.	.	.	.
*rep	*	*	*	*	*	*	*	*
8F#\L	8aa\)	.	8F#\	.	8r	.	8r	.
!	!LO:TX:t=P:problem=brak rozpoczęcia łuku	!	!	!	!	!	!	!
8dJ 8c 8A\	(16dd\LL	.	8r	.	(16d/LL	.	(16dd\LL	.
.	16ff#\JJ	.	.	.	16f#/JJ	.	16ff#\JJ	.
*Xrep	*	*	*	*	*	*	*	*
!!LO:LB:g=original
=56	=56	=56	=56	=56	=56	=56	=56	=56
!	!	!	!	!	!LO:TX:t=P:problem=brak dokończenia łuku	!	!LO:TX:t=P:problem=brak dokończenia łuku	!
8D\L	8aa'\L)	.	8D\	.	8a/)	.	8aa\)	.
8dJ 8c 8A\	(16dd\L	.	8r	.	8r	.	8r	.
.	16ff#\JJ	.	.	.	.	.	.	.
*rep	*	*	*	*	*	*	*	*
8D\L	8aa\L)	.	8D\	.	4r	.	4r	.
8dJ 8c 8A\	(16bb\L	.	8r	.	.	.	.	.
.	16aa\JJ)	.	.	.	.	.	.	.
*Xrep	*	*	*	*	*	*	*	*
=57	=57	=57	=57	=57	=57	=57	=57	=57
*^	*	*	*	*	*	*	*	*
.	.	8qaa/	.	.	.	.	.	.	.
4G/	8G\L	(16gg\LL	.	8G\	.	4r	.	4r	.
.	.	16ff#\	.	.	.	.	.	.	.
.	8dJ 8B\	16gg\	.	8r	.	.	.	.	.
.	.	16aa\JJ	.	.	.	.	.	.	.
*rep	*rep	*	*	*	*	*	*	*	*
4G/	8G\L	8gg\)	.	8G\	.	8r	.	8r	.
!	!	!	!	!	!	!	!	!	!LO:DY:a:rj
.	8dJ 8B\	16dd\LL	.	8r	.	16d/LL	.	(16d/LL	f
.	.	16gg\JJ	.	.	.	16g/JJ	.	16g/JJ)	.
*Xrep	*Xrep	*	*	*	*	*	*	*	*
*v	*v	*	*	*	*	*	*	*	*
=58	=58	=58	=58	=58	=58	=58	=58	=58
8G\L	8bb\L	.	8GG/	.	8b 8d/	.	8b/L	.
8dJ 8B\	(16dd\L	.	8r	.	8r	.	(16d/L	.
.	16gg\JJ)	.	.	.	.	.	16g/JJ	.
*rep	*	*	*	*	*	*	*	*
8G\L	16bb\LL	.	8G\	.	16g/LL	.	16b/LL)	.
.	(16ddd 16bb\	.	.	.	(16b/	.	(16dd/	.
8dJ 8B\	16ccc 16aa\	.	8r	.	16a/	.	16cc/	.
.	16bbJJ 16gg\)	.	.	.	16g/JJ)	.	16b/JJ)	.
*Xrep	*	*	*	*	*	*	*	*
=59	=59	=59	=59	=59	=59	=59	=59	=59
.	8qbb/	.	.	.	.	.	8qb/	.
8F#\L	(16aa\LL	.	8F#\	.	8r	.	(16a/LL	.
.	16gg#X\	.	.	.	.	.	16g#X/	.
8dJ 8c 8A\	16aa\	.	8r	.	8d 8c/	.	16a/	.
.	16bb\JJ	.	.	.	.	.	16b/JJ	.
*rep	*	*	*	*	*	*	*	*
8F#\L	8aa\)	.	8F#\	.	8r	.	8a/)	.
8dJ 8c 8A\	(8eee^<\	.	8r	.	8d 8c/	.	(>8ee^<\	.
*Xrep	*	*	*	*	*	*	*	*
=60	=60	=60	=60	=60	=60	=60	=60	=60
8D\L	16ff#\)	.	8D\	.	8r	.	16f#/)	.
.	16r	.	.	.	.	.	16r	.
!	!	!	!	!	!	!	!LO:TX:t=P:problem=mixed beam	!
8cJ 8F#\	(8eee\L	.	8r	.	8f# 8c/	.	(8ee^<\L	.
*rep	*	*	*	*	*	*	*	*
8D\L	16ff#\Jk)	.	8D\	.	8r	.	16f#/Jk)	.
.	16r	.	.	.	.	.	16r	.
.	8qddd/	.	.	.	.	.	8qdd/	.
8cJ 8F#\	16.ccc\LL	.	8r	.	8f# 8c/	.	16.cc\LL	.
.	32aa\JJk	.	.	.	.	.	32a\JJk	.
*Xrep	*	*	*	*	*	*	*	*
!!LO:PB:g=original
=61	=61	=61	=61	=61	=61	=61	=61	=61
*	*	*	*	*	*	*	*8ba	*
*^	*	*	*	*	*	*	*	*
*	*	*	*	*	*	*	*	*8ba	*
!	!	!	!	!	!	!	!	!LO:TX:a:t=8va baſsa	!
.	.	8qaa/	.	.	.	.	.	8qa/	.
4.B/	8G\L	(16gg\LL	.	8G\	.	8r	.	(16g\LL	.
.	.	16ff#\	.	.	.	.	.	16f#\	.
.	8d 8B 8D\	16gg\	.	8r	.	8gL 8B/	.	16g\	.
.	.	16aa\JJ	.	.	.	.	.	16a\JJ	.
.	8dJ 8B 8G\	8gg\)	.	8GG/	.	8gJ 8B/	.	8g\)	.
*	*	*	*	*	*	*	*	*X8ba	*
=:|!	=:|!	=:|!	=:|!	=:|!	=:|!	=:|!	=:|!	=:|!	=:|!
*>E	*>E	*>E	*>E	*>E	*>E	*>E	*>E	*>E	*>E
8r;	8ryy	8r;	.	8r;	.	8r;	.	8r;	.
*v	*v	*	*	*	*	*	*	*	*
=62||	=62||	=62||	=62||	=62||	=62||	=62||	=62||	=62||
!!!OMD: Coda Allegro.
*k[f#]	*k[f#]	*	*k[f#]	*	*k[f#]	*	*k[f#]	*
*M3/4	*M3/4	*	*M3/4	*	*M3/4	*	*M3/4	*
4r	(4g^>/	.	4r	.	4r	.	4g^>/	.
*clefG2	*	*	*	*	*	*	*	*
=63	=63	=63	=63	=63	=63	=63	=63	=63
*^	*	*	*	*	*	*	*	*
*	*^	*	*	*	*	*	*	*	*
!	!	!	!	!	!	!	!	!LO:DY:rj	!	!LO:DY:rj
4r	2.G/	2.G\	8f#/L	.	4GG/	.	4r	p	(8f#/L	p
.	.	.	8g/)	.	.	.	.	.	8g/)	.
4fn 4d/	.	.	8b'/	.	4r	.	(>4fn 4G'>/	.	8b'/	.
.	.	.	8dd'/J	.	.	.	.	.	8dd'/J	.
4f 4d/	.	.	8gg\	.	4r	.	4f 4G'>/)	.	8gg\	.
.	.	.	8r	.	.	.	.	.	8r	.
=64	=64	=64	=64	=64	=64	=64	=64	=64	=64	=64
4r	2.G/	2.G\	(8f#/L	.	4C/	.	4r	.	(8f#/L	.
.	.	.	8g/)	.	.	.	.	.	8g/)	.
4e 4c/	.	.	8cc'/	.	4r	.	(>4e 4G'>/	.	8cc'/	.
.	.	.	8ee'/J	.	.	.	.	.	8ee'/J	.
4e 4c/	.	.	8gg\	.	4r	.	4e 4G'>/)	.	8gg\	.
.	.	.	8r	.	.	.	.	.	8r	.
*	*v	*v	*	*	*	*	*	*	*	*
*v	*v	*	*	*	*	*	*	*	*
!!LO:LB:g=original
=65	=65	=65	=65	=65	=65	=65	=65	=65
*clefF4	*	*	*	*	*	*	*	*
8D\	(8eee\L	.	4D\	.	4r	.	(8ee\L	.
8r	8ddd\)	.	.	.	.	.	8dd\)	.
4d 4c 4A\	8ccc'\	.	4r	.	(>4d 4c'>/	.	8cc'\	.
.	8aa'\J	.	.	.	.	.	8a'\J	.
4d 4c 4A\	8ff#\	.	4r	.	4d 4c'>/)	.	8f#/	.
.	8r	.	.	.	.	.	8r	.
=66	=66	=66	=66	=66	=66	=66	=66	=66
*^	*	*	*	*	*	*	*	*
4r	2.G\	(8ccc\L	.	4GG/	.	4r	.	(8cc/L	.
.	.	8bb\)	.	.	.	.	.	8b/)	.
4d 4B/	.	8gg'\	.	4r	.	4d 4B/	.	8g'/	.
.	.	8dd'\J	.	.	.	.	.	8d'/J	.
4d 4B/	.	8b'\	.	4r	.	8d 8B/	.	8B'/	.
.	.	8r	.	.	.	8r	.	8r	.
=67	=67	=67	=67	=67	=67	=67	=67	=67	=67
4r	2.G\	(8f#/L	.	4GG/	.	4r	.	4r	.
.	.	8g/)	.	.	.	.	.	.	.
4fn 4d/	.	8b'/	.	4r	.	(>4fn 4G'>/	.	4r	.
.	.	8dd'/J	.	.	.	.	.	.	.
4f 4d/	.	8gg\	.	4r	.	4f 4G'>/)	.	8gg^<\	.
.	.	8r	.	.	.	.	.	8r	.
=68	=68	=68	=68	=68	=68	=68	=68	=68	=68
4r	2.G\	(8f#/L	.	4C/	.	4r	.	4r	.
.	.	8g/)	.	.	.	.	.	.	.
4e 4c/	.	8cc'/	.	4r	.	4e 4G/	.	4r	.
.	.	8ee'/J	.	.	.	.	.	.	.
4e 4c/	.	8gg\	.	4r	.	4e 4G/	.	8gg^<\	.
.	.	8r	f	.	.	.	.	8r	.
*v	*v	*	*	*	*	*	*	*	*
=69	=69	=69	=69	=69	=69	=69	=69	=69
*	*	*	*2\right	*	*	*	*	*
!	!	!	!	!LO:DY:rj	!	!LO:DY:rj	!	!LO:DY:rj
[2.c [2.A [>2.D\	(8eee\L	.	2.A 2.D\	f	[2.f# [2.c/	f	(8ee\L	f
.	8ddd\)	.	.	.	.	.	8dd\)	.
.	8ccc'\	.	.	.	.	.	(8cc'\	.
.	8bb'\	.	.	.	.	.	8b'\	.
.	8aa'\	.	.	.	.	.	8a'\	.
.	8gg'\J	.	.	.	.	.	8g'\J)	.
!!LO:LB:g=original
=70	=70	=70	=70	=70	=70	=70	=70	=70
!LO:TX:t=P:problem=brak dokończenia ligatur	!	!	!	!	!LO:TX:b:t=P:problem=koniec dolnej ligatury na górze	!	!	!
2.c] 2.A] 2.D\]	(8ff#\L	.	2.A 2.D\	.	2.f#] 2.c/]	.	(8f#'/L	.
.	8ee\)	.	.	.	.	.	8e'/	.
.	8dd'\	.	.	.	.	.	8d'/	.
.	8cc'\	.	.	.	.	.	8cc'/	.
.	8b'\	.	.	.	.	.	8b'/	.
.	8a'\J	.	.	.	.	.	8a'/J)	.
=71	=71	=71	=71	=71	=71	=71	=71	=71
4B 4G\	4g/	.	4G\	.	4g 4B/	.	4g/	.
8r	8r	.	8GG/	.	8G/	.	8r	.
*clefG2	*	*	*	*	*	*	*	*
8bL 8g/	8bbL 8gg 8dd\	.	8r	.	8r	.	8bbL 8dd\	.
8b 8g/	8bb 8gg 8dd\	.	4r	.	4r	.	8bb 8dd\	.
8bJ 8g/	8bbJ 8gg 8dd\	.	.	.	.	.	8bbJ 8dd\	.
=72	=72	=72	=72	=72	=72	=72	=72	=72
4a 4d/	4aa 4ff# 4dd\	.	(16D\LL	.	(16d/LL	.	4bb 4dd\	.
.	.	.	16F#\	.	16f#/	.	.	.
.	.	.	16A\	.	16a/	.	.	.
.	.	.	16F#\JJ	.	16f#/JJ	.	.	.
8r	8r	.	8D\)	.	8d/)	.	8r	.
8aL 8d/	8dddL 8ff#\	.	8D\L	.	8r	.	8dddL 8dd\	.
8a 8d/	8ddd 8ff#\	.	8F#\	.	4r	.	8ddd 8dd\	.
8aJ 8d/	8dddJ 8ff#\	.	8D\J	.	.	.	8dddJ 8dd\	.
=73	=73	=73	=73	=73	=73	=73	=73	=73
4b 4g/	4bb 4gg\	.	(16G\LL	.	(16g/LL	.	4bb 4dd\	.
.	.	.	16B\	.	16b/	.	.	.
.	.	.	16d\	.	16dd/	.	.	.
.	.	.	16B\JJ	.	16b/JJ	.	.	.
8r	8r	.	8G\)	.	8g/)	.	8r	.
*	*	*	*	*	*	*	*tremolo	*
8bL 8g/	8bbL 8gg 8dd\	.	8G\L	.	8r	.	8bbL 8dd\	.
8b 8g/	8bb 8gg 8dd\	.	8B\	.	4r	.	8bb 8dd\	.
8bJ 8g/	8bbJ 8gg 8dd\	.	8G\J	.	.	.	8bbJ 8dd\	.
*	*	*	*	*	*	*	*Xtremolo	*
=74	=74	=74	=74	=74	=74	=74	=74	=74
4a 4d/	4aa 4ff# 4dd\	.	(16D\LL	.	(16d/LL	.	4aa 4dd\	.
.	.	.	16F#\	.	16f#/	.	.	.
.	.	.	16A\	.	16a/	.	.	.
.	.	.	16F#\JJ	.	16f#/JJ	.	.	.
8r	8r	.	8D\)	.	8d/)	.	8r	.
*	*	*	*	*	*	*	*tremolo	*
8aL 8d/	8dddL 8ff#\	.	8D\L	.	8r	.	8dddL 8dd\	.
8a 8d/	8ddd 8ff#\	.	8F#\	.	4r	.	8ddd 8dd\	.
8aJ 8d/	8dddJ 8ff#\	.	8D\J	.	.	.	8dddJ 8dd\	.
*	*	*	*	*	*	*	*Xtremolo	*
!!LO:PB:g=original
=75	=75	=75	=75	=75	=75	=75	=75	=75
*clefG2	*	*	*	*	*	*	*	*
4b 4g/	4bb 4gg\	.	(16G\LL	.	(16g/LL	.	4bb 4dd\	.
.	.	.	16B\	.	16b/	.	.	.
.	.	.	16d\	.	16dd/	.	.	.
.	.	.	16B\JJ	.	16b/JJ	.	.	.
8r	8r	.	8G\)	.	8g/)	.	8r	.
*tremolo	*tremolo	*	*	*	*	*	*tremolo	*
8bL 8g/	8bbL 8gg 8dd\	.	8G\L	.	8r	.	8bbL 8dd\	.
8b 8g/	8bb 8gg 8dd\	.	8B\	.	4r	.	8bb 8dd\	.
8bJ 8g/	8bbJ 8gg 8dd\	.	8G\J	.	.	.	8bbJ 8dd\	.
*Xtremolo	*Xtremolo	*	*	*	*	*	*Xtremolo	*
=76	=76	=76	=76	=76	=76	=76	=76	=76
4a 4d/	4aa 4ff# 4dd\	.	(16D\LL	.	(16d/LL	.	4aa 4dd\	.
.	.	.	16F#\	.	16f#/	.	.	.
.	.	.	16A\	.	16a/	.	.	.
.	.	.	16F#\JJ	.	16f#/JJ	.	.	.
8r	8r	.	8D\)	.	8d/)	.	8r	.
*tremolo	*tremolo	*	*	*	*tremolo	*	*tremolo	*
8aL 8d/	8dddL 8ff#\	.	8D\L	.	8aL 8f#/	.	8dddL 8dd\	.
8a 8d/	8ddd 8ff#\	.	8F#\	.	8a 8f#/	.	8ddd 8dd\	.
8aJ 8d/	8dddJ 8ff#\	.	8D\J	.	8aJ 8f#/	.	8dddJ 8dd\	.
*Xtremolo	*Xtremolo	*	*	*	*Xtremolo	*	*Xtremolo	*
=77	=77	=77	=77	=77	=77	=77	=77	=77
8g/	8gg\	.	8G\	.	8g/	.	8gg\	.
(4G/	4g^/	.	8r	.	8r	.	8r	.
.	.	.	4r	.	4r	.	4r	.
16A/LL	(>16a/LL	.	.	.	.	.	.	.
16B/JJ	16b/JJ	.	.	.	.	.	.	.
16c/LL	16cc\LL	.	4r	.	4r	.	4r	.
16d/	16dd\	.	.	.	.	.	.	.
16e/	16ee\	.	.	.	.	.	.	.
16f#/JJ	16ff#\JJ	.	.	.	.	.	.	.
=78	=78	=78	=78	=78	=78	=78	=78	=78
8g/)	8gg\)	.	8r	.	8r	.	8r	.
4g/	4gg^<\	.	4GG^>/	.	4G/	.	(4g^/	.
(16a\LL	(16aa\LL	.	(<16AA/LL	.	(>16A/LL	.	16a/LL	.
16b\JJ	16bb\JJ	.	16BB/JJ	.	16B/JJ	.	16b/JJ	.
16cc\LL	16ccc\LL	.	16C/LL	.	16c/LL	.	16cc\LL	.
16dd\	16ddd\	.	16D/	.	16d/	.	16dd\	.
16ee\	16eee\	.	16E/	.	16e/	.	16ee\	.
16ff#\JJ	16fff#\JJ	.	16F#/JJ	.	16f#/JJ	.	16ff#\JJ	.
!!LO:LB:g=original
=79	=79	=79	=79	=79	=79	=79	=79	=79
!LO:TX:t=P:problem=brak dokończenia łuku	!LO:TX:t=P:problem=brak dokończenia łuku	!	!LO:TX:t=P:problem=brak dokończenia łuku	!	!LO:TX:t=P:problem=brak dokończenia łuku	!	!LO:TX:t=P:problem=brak dokończenia łuku	!
4gg\)	4ggg\)	.	4G\)	.	4g/)	.	4gg\)	.
4r	4r	.	4r	.	4r	.	4r	.
4r	4r	.	4r	.	4r	.	4r	.
=80	=80	=80	=80	=80	=80	=80	=80	=80
4b 4g 4B/	4bb 4gg 4dd\	.	4G 4GG\	.	4gg 4b 4d\	.	4bb 4dd 4g\	.
4r	4r	.	4r	.	4r	.	4r	.
8.r	8.r	.	8.r	.	8.r	.	8.r	.
16G/	16g 16d 16B/	.	16D 16GG\	.	16d 16B/	.	16g 16G/	.
=81	=81	=81	=81	=81	=81	=81	=81	=81
!	!LO:TX:b:i:t=Dnia 2. Lutego 1855 roku JS.	!	!	!	!	!	!LO:N:vis=2	!
2.G;/	2.g 2.d 2.B;/	.	2.D 2.GG;</	.	2.d 2.B;/	.	2.g 2.G;/	.
==	==	==	==	==	==	==	==	==
*-	*-	*-	*-	*-	*-	*-	*-	*-
!!!system-decoration: [(g1)][(p4)]
!!!RDF**kern: > = above
!!!RDF**kern: < = below
!!!RDF**kern: | = vertical stroke
!!!ENC: Marta Lawrence
!!!END: 2021-06-26
!!!ENC: Krzysztof Stępień
!!!END: 2021-06-21
